svg/download_box_outline.svg

<?xml version="1.0" encoding="UTF-8"?><!DOCTYPE svg PUBLIC "-//W3C//DTD SVG 1.1//EN" "http://www.w3.org/Graphics/SVG/1.1/DTD/svg11.dtd"><svg xmlns="http://www.w3.org/2000/svg" xmlns:xlink="http://www.w3.org/1999/xlink" version="1.1" id="mdi-download-box-outline" width="24" height="24" viewBox="0 0 24 24"><path d="M8 17V15H16V17H8M16 10L12 14L8 10H10.5V7H13.5V10H16M5 3H19C20.11 3 21 3.9 21 5V19C21 20.11 20.11 21 19 21H5C3.9 21 3 20.11 3 19V5C3 3.9 3.9 3 5 3M5 5V19H19V5H5Z" /></svg>

<svg xmlns="http://www.w3.org/2000/svg" viewBox="0 0 24 24"><path d="M8 17v-2h8v2zm8-7-4 4-4-4h2.5V7h3v3zM5 3h14a2 2 0 0 1 2 2v14c0 1.11-.89 2-2 2H5a2 2 0 0 1-2-2V5c0-1.1.9-2 2-2m0 2v14h14V5z"/></svg>
